X: 34760
T: Road To Mirth, The
R: slip jig
M: 9/8
K: Gmajor
|:D|G2 G G2 c Bcd|e2 c d2 B A2 B|G2 G G2 c Bcd|D2 D DEF G2:|
c|B2 G G2 c dcB|c2 A A2 B cBA|B2 G G2 A B2 c|d2 B A2 B G2 c|
B2 G G2 c dcB|c2 A A2 B cBA|B2 d g2 d e2 B|d2 B A2 B G3||

